svg/fluentui-system-icons/ic_fluent_fast_forward_20_regular.svg

<svg width="20" height="20" viewBox="0 0 20 20" fill="none" xmlns="http://www.w3.org/2000/svg">
<path d="M10.0183 5.48617C10.0183 4.66707 10.9491 4.19538 11.6097 4.67976L17.4893 8.99146C18.1703 9.4909 18.1703 10.508 17.4893 11.0075L11.6097 15.3192C10.9491 15.8036 10.0183 15.3319 10.0183 14.5128V11.3528L4.60967 15.3192C3.94915 15.8036 3.01831 15.3319 3.01831 14.5128V5.48617C3.01831 4.66707 3.94915 4.19538 4.60967 4.67976L10.0183 8.6461V5.48617ZM16.8979 9.79786L11.0183 5.48617V14.5128L16.8979 10.2011C17.0341 10.1012 17.0341 9.89775 16.8979 9.79786ZM9.8979 9.79786L4.01831 5.48617V14.5128L9.8979 10.2011C10.0341 10.1012 10.0341 9.89775 9.8979 9.79786Z" fill="#212121"/>
</svg>

<svg xmlns="http://www.w3.org/2000/svg" width="20" height="20"><path d="M10.018 5.486a1 1 0 0 1 1.592-.806l5.88 4.311a1.25 1.25 0 0 1 0 2.017l-5.88 4.311a1 1 0 0 1-1.592-.806v-3.16L4.61 15.319a1 1 0 0 1-1.592-.806V5.486A1 1 0 0 1 4.61 4.68l5.408 3.966v-3.16Zm6.88 4.312-5.88-4.312v9.027l5.88-4.312a.25.25 0 0 0 0-.403Zm-7 0-5.88-4.312v9.027l5.88-4.312a.25.25 0 0 0 0-.403Z"/></svg>
